src/assets/icon/Icon=save.svg

<svg width="16" height="16" viewBox="0 0 16 16" fill="none" xmlns="http://www.w3.org/2000/svg">
<path d="M13.25 15.9999C13.0937 16.0003 12.9413 15.9482 12.8143 15.8511L8 12.1831L3.18575 15.8511C3.0736 15.9365 2.94157 15.9873 2.80414 15.9979C2.66671 16.0085 2.52919 15.9785 2.40668 15.9113C2.28418 15.844 2.18141 15.742 2.10967 15.6165C2.03793 15.491 1.99999 15.3469 2 15.1999V2.39999C2.0006 1.76367 2.23784 1.15359 2.65967 0.703642C3.0815 0.253695 3.65345 0.000635369 4.25 0H11.75C12.3466 0.000635369 12.9185 0.253695 13.3403 0.703642C13.7622 1.15359 13.9994 1.76367 14 2.39999V15.1999C14 15.4121 13.921 15.6156 13.7803 15.7656C13.6397 15.9156 13.4489 15.9999 13.25 15.9999ZM8 10.4C8.156 10.4 8.309 10.452 8.43575 10.5495L12.5 13.6447V2.39999C12.5 2.18782 12.421 1.98433 12.2803 1.83431C12.1397 1.68428 11.9489 1.59999 11.75 1.59999H4.25C4.05109 1.59999 3.86032 1.68428 3.71967 1.83431C3.57902 1.98433 3.5 2.18782 3.5 2.39999V13.6455L7.56425 10.5495C7.69129 10.4524 7.84367 10.4001 8 10.4Z" fill="black"/>
</svg>

<svg xmlns="http://www.w3.org/2000/svg" width="16" height="16" fill="none" viewBox="0 0 16 16"><path fill="#000" d="M13.25 16a.714.714 0 0 1-.436-.149L8 12.183l-4.814 3.668a.711.711 0 0 1-.78.06.772.772 0 0 1-.296-.294A.84.84 0 0 1 2 15.2V2.4c0-.636.238-1.246.66-1.696C3.08.254 3.653 0 4.25 0h7.5a2.18 2.18 0 0 1 1.59.704c.422.45.66 1.06.66 1.696v12.8a.828.828 0 0 1-.22.566.727.727 0 0 1-.53.234zM8 10.4c.156 0 .309.052.436.15l4.064 3.095V2.4a.828.828 0 0 0-.22-.566.727.727 0 0 0-.53-.234h-7.5a.727.727 0 0 0-.53.234.828.828 0 0 0-.22.566v11.245l4.064-3.095A.718.718 0 0 1 8 10.4z"/></svg>
